apps/www/public/images/logos/publicity/fixed-width/humata.svg

<svg width="180" height="60" viewBox="0 0 180 60" fill="none" xmlns="http://www.w3.org/2000/svg">
<path fill-rule="evenodd" clip-rule="evenodd" d="M42.1012 24.5408C41.6373 24.5408 41.2613 24.9168 41.2613 25.3806V34.6193C41.2613 35.0832 41.6373 35.4592 42.1012 35.4592H45.0407V37.9788H42.1012C40.2458 37.9788 38.7417 36.4747 38.7417 34.6193V25.3806C38.7417 23.5253 40.2458 22.0212 42.1012 22.0212H45.0407V24.5408H42.1012Z" fill="#7E7E7E"/>
<path fill-rule="evenodd" clip-rule="evenodd" d="M58.8991 35.4593C59.3629 35.4593 59.7389 35.0833 59.7389 34.6194V25.3808C59.7389 24.9169 59.3629 24.5409 58.8991 24.5409H55.9595V22.0213H58.8991C60.7544 22.0213 62.2585 23.5254 62.2585 25.3808V34.6194C62.2585 36.4748 60.7544 37.9789 58.8991 37.9789H55.9595V35.4593H58.8991Z" fill="#7E7E7E"/>
<path d="M58.4786 29.9627C58.4786 28.9504 57.7356 28.0927 56.7332 27.948C54.5864 27.599 52.9034 25.9135 52.5568 23.7667C52.4072 22.7668 51.5495 22.0238 50.5372 22.0213H50.4624C49.4501 22.0213 48.5924 22.7643 48.4477 23.7667C48.0987 25.9135 46.4132 27.5965 44.2664 27.9431C43.2665 28.0927 42.5235 28.9504 42.521 29.9627V30.0375C42.521 31.0498 43.264 31.9075 44.2664 32.0521C46.4132 32.4012 48.0962 34.0867 48.4428 36.2335C48.5924 37.2334 49.4501 37.9764 50.4624 37.9789H50.5372C51.5495 37.9789 52.4072 37.2359 52.5518 36.2335C52.9009 34.0867 54.5864 32.4037 56.7332 32.0571C57.7331 31.9075 58.4761 31.0498 58.4786 30.0375V29.9627ZM55.4865 30.03C55.4865 30.05 55.4591 30.0674 55.4317 30.0724C52.9333 30.4788 50.9735 32.4386 50.5646 34.937C50.5646 34.9644 50.5447 34.9868 50.5297 34.9868H50.4674C50.4474 34.9868 50.43 34.9594 50.425 34.932C50.0186 32.4336 48.0613 30.4738 45.5604 30.0649C45.533 30.0649 45.5106 30.045 45.5106 30.03V29.9677C45.5106 29.9477 45.538 29.9303 45.5654 29.9253C48.0638 29.5189 50.0236 27.5591 50.4325 25.0607C50.4325 25.0333 50.4524 25.0109 50.4674 25.0109H50.5297C50.5497 25.0109 50.5671 25.0383 50.5721 25.0657C50.9785 27.5641 52.9358 29.5239 55.4367 29.9328C55.4641 29.9328 55.4865 29.9527 55.4865 29.9677V30.03Z" fill="#7E7E7E"/>
<path d="M80.5647 22.0212H83.3085V37.738H80.5647V30.8646H73.1906V37.738H70.4468V22.0212H73.1906V28.413H80.5647V22.0212Z" fill="#7E7E7E"/>
<path d="M94.6043 26.2459V37.7381H92.0319V36.5122C91.3888 37.2784 90.4242 37.9788 88.9665 37.9788C86.6085 37.9788 85.1509 36.3371 85.1509 33.8636V26.2459H87.7231V33.2945C87.7231 34.6954 88.3234 35.5929 89.7167 35.5929C90.8743 35.5929 92.0319 34.7173 92.0319 33.0756V26.2459H94.6043Z" fill="#7E7E7E"/>
<path d="M99.0006 30.9963V37.7384H96.4282V26.2462H99.0006V27.4721C99.6222 26.7059 100.587 26.0274 102.087 26.0274C103.438 26.0274 104.445 26.6403 105.067 27.6254C105.753 26.881 106.825 26.0274 108.561 26.0274C110.876 26.0274 112.377 27.691 112.377 30.1645V37.7384H109.804V30.9307C109.804 29.5079 109.29 28.479 107.918 28.479C106.825 28.479 105.689 29.3546 105.689 30.9963V37.7384H103.116V30.9307C103.116 29.5079 102.602 28.479 101.23 28.479C100.137 28.479 99.0006 29.3546 99.0006 30.9963Z" fill="#7E7E7E"/>
<path d="M117.333 37.9352C115.189 37.9352 113.539 36.6 113.539 34.5423C113.539 32.3534 115.146 31.3902 117.311 30.9305L120.42 30.2738V30.0768C120.42 28.9823 119.862 28.3037 118.49 28.3037C117.268 28.3037 116.625 28.8729 116.325 29.9893L113.903 29.4202C114.46 27.5157 116.111 26.0273 118.598 26.0273C121.298 26.0273 122.928 27.3406 122.928 29.9893V34.9363C122.928 35.5931 123.206 35.79 123.914 35.7025V37.7383C122.049 37.9572 121.063 37.585 120.677 36.6438C119.969 37.4537 118.79 37.9352 117.333 37.9352ZM120.42 33.6886V32.2877L117.997 32.813C116.904 33.0538 116.089 33.4041 116.089 34.4328C116.089 35.3304 116.733 35.8338 117.719 35.8338C119.091 35.8338 120.42 35.0896 120.42 33.6886Z" fill="#7E7E7E"/>
<path d="M125.334 34.8485V28.4786H123.769V26.2458H125.334V22.8748H127.863V26.2458H130.221V28.4786H127.863V34.4325C127.863 35.4614 128.442 35.5708 129.364 35.5708C129.793 35.5708 130.028 35.549 130.414 35.5052V37.716C129.943 37.8036 129.3 37.8693 128.635 37.8693C126.492 37.8693 125.334 37.1907 125.334 34.8485Z" fill="#7E7E7E"/>
<path d="M134.677 37.9352C132.534 37.9352 130.883 36.6 130.883 34.5423C130.883 32.3534 132.491 31.3902 134.656 30.9305L137.764 30.2738V30.0768C137.764 28.9823 137.207 28.3037 135.835 28.3037C134.613 28.3037 133.97 28.8729 133.67 29.9893L131.248 29.4202C131.805 27.5157 133.456 26.0273 135.942 26.0273C138.644 26.0273 140.272 27.3406 140.272 29.9893V34.9363C140.272 35.5931 140.552 35.79 141.259 35.7025V37.7383C139.394 37.9572 138.407 37.585 138.021 36.6438C137.314 37.4537 136.135 37.9352 134.677 37.9352ZM137.764 33.6886V32.2877L135.342 32.813C134.249 33.0538 133.434 33.4041 133.434 34.4328C133.434 35.3304 134.078 35.8338 135.063 35.8338C136.435 35.8338 137.764 35.0896 137.764 33.6886Z" fill="#7E7E7E"/>
</svg>

<svg xmlns="http://www.w3.org/2000/svg" width="180" height="60" fill="none" viewBox="0 0 180 60"><path fill="#7e7e7e" fill-rule="evenodd" d="M42.101 24.54a.84.84 0 0 0-.84.84v9.24c0 .463.376.84.84.84h2.94v2.519H42.1a3.36 3.36 0 0 1-3.36-3.36v-9.238a3.36 3.36 0 0 1 3.36-3.36h2.94v2.52zM58.9 35.46a.84.84 0 0 0 .839-.84v-9.24a.84.84 0 0 0-.84-.84h-2.94v-2.519h2.94a3.36 3.36 0 0 1 3.36 3.36v9.238a3.36 3.36 0 0 1-3.36 3.36h-2.94v-2.52z" clip-rule="evenodd"/><path fill="#7e7e7e" d="M58.479 29.963c0-1.013-.743-1.87-1.746-2.015a5.05 5.05 0 0 1-4.176-4.181 2.05 2.05 0 0 0-2.02-1.746h-.075c-1.012 0-1.87.743-2.014 1.746a5.05 5.05 0 0 1-4.182 4.176 2.05 2.05 0 0 0-1.745 2.02v.075c0 1.012.743 1.87 1.745 2.014a5.05 5.05 0 0 1 4.177 4.182c.15 1 1.007 1.742 2.02 1.745h.074c1.013 0 1.87-.743 2.015-1.745a5.05 5.05 0 0 1 4.181-4.177c1-.15 1.743-1.007 1.746-2.02zm-2.992.067c0 .02-.028.037-.055.042a5.89 5.89 0 0 0-4.867 4.865c0 .027-.02.05-.035.05h-.063c-.02 0-.037-.028-.042-.055a5.89 5.89 0 0 0-4.865-4.867c-.027 0-.05-.02-.05-.035v-.062c0-.02.028-.038.055-.043a5.89 5.89 0 0 0 4.868-4.864c0-.028.02-.05.034-.05h.063c.02 0 .037.027.042.055a5.89 5.89 0 0 0 4.865 4.867c.027 0 .05.02.05.035zM80.565 22.021h2.743v15.717h-2.743v-6.873H73.19v6.873h-2.744V22.021h2.744v6.392h7.374zM94.604 26.246v11.492h-2.572v-1.226c-.643.766-1.608 1.467-3.065 1.467-2.358 0-3.816-1.642-3.816-4.115v-7.618h2.572v7.049c0 1.4.6 2.298 1.994 2.298 1.157 0 2.315-.876 2.315-2.517v-6.83zM99 30.996v6.742h-2.572V26.246h2.573v1.226c.621-.766 1.586-1.445 3.086-1.445 1.351 0 2.358.613 2.98 1.598.686-.744 1.758-1.598 3.494-1.598 2.315 0 3.816 1.664 3.816 4.137v7.574h-2.573v-6.807c0-1.423-.514-2.452-1.886-2.452-1.093 0-2.229.876-2.229 2.517v6.742h-2.573v-6.807c0-1.423-.514-2.452-1.886-2.452-1.093 0-2.23.876-2.23 2.517M117.333 37.935c-2.144 0-3.794-1.335-3.794-3.393 0-2.189 1.607-3.152 3.772-3.612l3.109-.656v-.197c0-1.095-.558-1.773-1.93-1.773-1.222 0-1.865.569-2.165 1.685l-2.422-.569c.557-1.904 2.208-3.393 4.695-3.393 2.7 0 4.33 1.314 4.33 3.962v4.947c0 .657.278.854.986.767v2.035c-1.865.22-2.851-.153-3.237-1.094-.708.81-1.887 1.291-3.344 1.291m3.087-4.246v-1.401l-2.423.525c-1.093.24-1.908.591-1.908 1.62 0 .897.644 1.4 1.63 1.4 1.372 0 2.701-.743 2.701-2.144M125.334 34.849v-6.37h-1.565v-2.233h1.565v-3.371h2.529v3.37h2.358v2.234h-2.358v5.953c0 1.03.579 1.139 1.501 1.139.429 0 .664-.022 1.05-.066v2.211c-.471.088-1.114.153-1.779.153-2.143 0-3.301-.678-3.301-3.02M134.677 37.935c-2.143 0-3.794-1.335-3.794-3.393 0-2.189 1.608-3.152 3.773-3.612l3.108-.656v-.197c0-1.095-.557-1.773-1.929-1.773-1.222 0-1.865.569-2.165 1.685l-2.422-.569c.557-1.904 2.208-3.393 4.694-3.393 2.702 0 4.33 1.314 4.33 3.962v4.947c0 .657.28.854.987.767v2.035c-1.865.22-2.852-.153-3.238-1.094-.707.81-1.886 1.291-3.344 1.291m3.087-4.246v-1.401l-2.422.525c-1.093.24-1.908.591-1.908 1.62 0 .897.644 1.4 1.629 1.4 1.372 0 2.701-.743 2.701-2.144"/></svg>
